X: 38184
T: Spotted Pony, The
R: barndance
M: 4/4
K: Dmajor
|:D2DD E2EE|F2FF G4|ABde fede|f2a2 e4|
D2DD E2EE|F2FF G4|ABde fede|f2e2d4:|
|:f2a2 f4|efed B4|ABde fede|f2a2 e4|
f2a2 f4|efed B4|ABde fede|f2e2 d4:|

